X: 18044
T: Humours Of Aughnashalvey, The
R: hornpipe
M: 4/4
K: Dmajor
|(3A,B,C|:D2FA dAFA|(3Bcd ef gece|(3dedcd BdAF|GBAF GECE|
D2FA dAFA|(3Bcd ef gece|(3ded cd BdAF|1 GECE D2(3A,B,C:|2 GECE D2 fg||
|:a2fe d3g|b2gf e2fg|a2fe dcdf|efga fddf|
a2fe d3g|b2 gf edef|(3ded cd BdAF|1 GECE D2fg:|2 GECE D4||

